src/assets/link.svg

<svg fill="none" height="20" viewBox="0 0 20 20" width="20" xmlns="http://www.w3.org/2000/svg" xmlns:xlink="http://www.w3.org/1999/xlink"><clipPath id="a"><path d="m0 0h20v20h-20z"/></clipPath><g clip-path="url(#a)" fill="#fcfcfd"><path d="m17.7619 2.23793c-2.1392-2.1391804-5.623-2.1391804-7.76217 0l-2.13918 2.13918c-1.16127 1.16127-1.65022 2.75038-1.34463 4.33948l.6112 3.23931c.12224.6723.73343 1.1002 1.40574.9779.67232-.1222 1.10015-.7334.97791-1.4057l-.61119-3.23934c-.12224-.79456.12224-1.58911.67231-2.13918l2.13921-2.13919c1.2224-1.22238 3.1171-1.22238 4.3395 0 1.2223 1.22239 1.2223 3.1171 0 4.33949l-.489.48895c-.489.48896-.489 1.22237 0 1.71137.489.4889 1.2224.4889 1.7113 0l.489-.489c2.1392-2.20028 2.1392-5.68409 0-7.82327z"/><path d="m12.9339 8.04389c-.1222-.67231-.7334-1.10015-1.4057-.97791s-1.1001.73343-.9779 1.40575l.6112 3.23937c.1222.7945-.1223 1.5891-.6723 2.1391l-2.13921 2.1392c-1.22239 1.2224-3.11709 1.2224-4.33948 0-1.22238-1.2224-1.22238-3.1171 0-4.3395l.48896-.4889c.48895-.489.48895-1.22241 0-1.71136-.48896-.48896-1.22239-.48896-1.71134 0l-.55008.55007c-2.1391779 2.13919-2.1391779 5.62299 0 7.76219 2.13918 2.1392 5.62299 2.1392 7.76215 0l2.1392-2.1392c1.1613-1.1613 1.6502-2.7504 1.3446-4.3395z"/></g></svg>

<svg xmlns="http://www.w3.org/2000/svg" width="20" height="20" fill="none" viewBox="0 0 20 20">
    <g clip-path="url(#clip0_7664_7102)">
        <path fill="#FCFCFD" d="M17.7619 2.23793C15.6227 0.0987496 12.1389 0.0987496 9.99973 2.23793L7.86055 4.37711C6.69928 5.53838 6.21033 7.12749 6.51592 8.71659L7.12712 11.9559C7.24936 12.6282 7.86055 13.0561 8.53286 12.9338C9.20518 12.8116 9.63301 12.2004 9.51077 11.5281L8.89958 8.28876C8.77734 7.4942 9.02182 6.69965 9.57189 6.14958L11.7111 4.01039C12.9335 2.78801 14.8282 2.78801 16.0506 4.01039C17.2729 5.23278 17.2729 7.12749 16.0506 8.34988L15.5616 8.83883C15.0726 9.32779 15.0726 10.0612 15.5616 10.5502C16.0506 11.0391 16.784 11.0391 17.2729 10.5502L17.7619 10.0612C19.9011 7.86092 19.9011 4.37711 17.7619 2.23793Z"/>
        <path fill="#FCFCFD" d="M12.9339 8.04389C12.8117 7.37158 12.2005 6.94374 11.5282 7.06598C10.8559 7.18822 10.4281 7.79941 10.5503 8.47173L11.1615 11.7111C11.2837 12.5056 11.0392 13.3002 10.4892 13.8502L8.34999 15.9894C7.1276 17.2118 5.2329 17.2118 4.01051 15.9894C2.78813 14.767 2.78813 12.8723 4.01051 11.6499L4.49947 11.161C4.98842 10.672 4.98842 9.93859 4.49947 9.44964C4.01051 8.96068 3.27708 8.96068 2.78813 9.44964L2.23805 9.99971C0.0988721 12.1389 0.0988721 15.6227 2.23805 17.7619C4.37723 19.9011 7.86104 19.9011 10.0002 17.7619L12.1394 15.6227C13.3007 14.4614 13.7896 12.8723 13.484 11.2832L12.9339 8.04389Z"/>
    </g>
    <defs>
        <clipPath id="clip0_7664_7102">
            <rect width="20" height="20" fill="white"/>
        </clipPath>
    </defs>
</svg>
